Newaita-dark/apps/48/haguichi.svg

<svg height="48" viewBox="0 0 48 48" width="48" xmlns="http://www.w3.org/2000/svg" xmlns:xlink="http://www.w3.org/1999/xlink"><linearGradient id="a" gradientUnits="userSpaceOnUse" x1="23.81478" x2="23.81478" y1="42.0509045" y2="44.03547050005"><stop offset="0" stop-opacity=".27451"/><stop offset="1" stop-opacity="0"/></linearGradient><linearGradient id="b"><stop offset="0" stop-opacity=".313726"/><stop offset=".222222" stop-opacity=".27451"/><stop offset="1" stop-opacity="0"/></linearGradient><radialGradient id="c" cx="450.908936" cy="189.579361" gradientTransform="matrix(.00000026 -.117199 -.210958 -.00000015 78.195972 95.392999)" gradientUnits="userSpaceOnUse" r="21.166656" xlink:href="#b"/><radialGradient id="d" cx="450.908936" cy="189.579361" gradientTransform="matrix(-.00000026 .117199 .210958 .00000015 -30.56642 -11.291218)" gradientUnits="userSpaceOnUse" r="21.166656" xlink:href="#b"/><radialGradient id="e" cx="450.908936" cy="189.579361" gradientTransform="matrix(-.00000026 -.117199 .210958 -.00000015 -30.56642 95.392999)" gradientUnits="userSpaceOnUse" r="21.166656" xlink:href="#b"/><radialGradient id="f" cx="450.908936" cy="189.579361" gradientTransform="matrix(.00000026 .117199 -.210958 .00000015 78.195969 -11.291219)" gradientUnits="userSpaceOnUse" r="21.166656" xlink:href="#b"/><linearGradient id="g" gradientUnits="userSpaceOnUse" x1="15.87652349995" x2="15.87652349995" y1="42.0509015" y2="4.3441580001"><stop offset="0" stop-color="#f44336"/><stop offset="1" stop-color="#ef5350"/></linearGradient><linearGradient id="h" gradientUnits="userSpaceOnUse" x1="23.814786" x2="23.814786" y1="42.0509005" y2="4.3441570001"><stop offset="0" stop-color="#bdbdbd"/><stop offset="1" stop-color="#e0e0e0"/></linearGradient><path d="m8.929688 41.902344h29.769531v2.207031h-29.769531zm0 0" fill="url(#a)"/><path d="m38.699219 42.050781h3.96875v-1.984375h-3.96875zm0 0" fill="url(#c)"/><path d="m8.929688 42.050781h-3.96875v1.984375h3.96875zm0 0" fill="url(#d)"/><path d="m8.929688 42.050781h-3.96875v-1.984375h3.96875zm0 0" fill="url(#e)"/><path d="m38.699219 42.050781h3.96875v1.984375h-3.96875zm0 0" fill="url(#f)"/><path d="m6.945312 4.34375h33.738282c1.097656 0 1.984375.890625 1.984375 1.984375v33.738281c0 1.097656-.886719 1.984375-1.984375 1.984375h-33.738282c-1.09375 0-1.984374-.886719-1.984374-1.984375v-33.738281c0-1.09375.890624-1.984375 1.984374-1.984375zm0 0" fill="url(#g)"/><path d="m6.945312 4.34375c-1.097656 0-1.984374.886719-1.984374 1.984375v.25c0-1.101563.886718-1.988281 1.984374-1.984375h33.738282c1.097656-.003906 1.984375.882812 1.984375 1.984375v-.25c0-1.097656-.886719-1.984375-1.984375-1.984375zm0 0" fill="#e6e6e6" fill-opacity=".392157"/><path d="m6.945312 42.050781c-1.097656 0-1.984374-.886719-1.984374-1.984375v-.25c0 1.101563.886718 1.988282 1.984374 1.988282h33.738282c1.097656 0 1.984375-.886719 1.984375-1.988282v.25c0 1.097656-.886719 1.984375-1.984375 1.984375zm0 0" fill-opacity=".196078"/><path d="m74.076259-168.671091h359.840637c11.707216 0 21.164646 9.499093 21.164646 21.164646v359.840637c0 11.707215-9.45743 21.164645-21.164646 21.164645h-359.840637c-11.665552 0-21.164645-9.45743-21.164645-21.164645v-359.840637c0-11.665553 9.499093-21.164646 21.164645-21.164646zm0 0" fill="none" stroke="#212121" stroke-linecap="round" stroke-width="3" transform="matrix(.093759 0 0 .093759 0 20.158175)"/><path d="m23.816406 10.300781c-.296875 0-.574218.128907-.761718.355469l-9.925782 11.90625c-.304687.367188-.304687.902344 0 1.269531l9.925782 11.90625c.1875.226563.464843.355469.761718.355469h5.953125c.839844 0 1.296875-.976562.761719-1.621094l-8.359375-10.03125-4.558594 2.972656 3.535157-4.199218-.011719-.015625 9.394531-11.273438c.535156-.648437.078125-1.625-.761719-1.625zm0 0" fill="url(#h)"/><path d="m23.816406 10.300781c-.296875 0-.574218.128907-.761718.355469l-9.925782 11.90625c-.191406.234375-.265625.535156-.210937.820312.03125-.160156.101562-.316406.210937-.449218l9.925782-11.90625c.1875-.226563.464843-.355469.761718-.355469h5.953125c.515625 0 .890625.371094.972657.808594.113281-.574219-.3125-1.179688-.972657-1.179688zm-1.644531 14.140625-3.867187 2.523438-.691407.820312 4.558594-2.972656 8.359375 10.027344c.113281.136718.179688.289062.210938.445312.050781-.273437-.007813-.566406-.210938-.8125zm0 0" fill="#fff"/><path d="m30.726562 11.671875c-.039062.128906-.101562.253906-.195312.367187l-9.394531 11.273438.011719.019531-3.535157 4.199219.972657-.636719 2.5625-3.042969-.011719-.015624 9.394531-11.273438c.222656-.269531.273438-.601562.195312-.890625zm-17.789062 11.902344c-.085938.304687-.019531.640625.191406.894531l9.925782 11.90625c.1875.226562.464843.359375.761718.359375h5.953125c.6875 0 1.121094-.664063.957031-1.257813-.113281.402344-.46875.734376-.957031.734376h-5.953125c-.296875 0-.574218-.128907-.761718-.355469l-9.925782-11.90625c-.089844-.113281-.15625-.242188-.191406-.375zm0 0" fill-opacity=".235294"/><path d="m960.065849 415.235959c-11.967362 0-23.147397 5.196355-30.705731 14.329341l-400.119292 479.954192c-12.282292 14.801737-12.282292 36.374481 0 51.176218l400.119292 479.954192c7.558334 9.132987 18.738369 14.329341 30.705731 14.329341h239.977096c33.855037 0 52.278475-39.366321 30.705731-65.348094l-336.975712-404.370854-183.761989 119.831083 142.506084-169.275183-.472396-.629861 378.704013-454.444816c21.572744-26.139237 3.149306-65.505559-30.705731-65.505559zm0 0" fill="none" stroke="#212121" stroke-linecap="round" stroke-linejoin="round" stroke-width="11.338583" transform="scale(.0248071)"/></svg>

<?xml version="1.0" encoding="UTF-8"?>
<svg xmlns="http://www.w3.org/2000/svg" xmlns:xlink="http://www.w3.org/1999/xlink" width="48px" height="48px" viewBox="0 0 48 48" version="1.1">
<defs>
<linearGradient id="linear0" gradientUnits="userSpaceOnUse" x1="254" y1="233.5" x2="254" y2="254.666672" gradientTransform="matrix(0.093759,0,0,0.093759,-0.00000572259,20.158178)">
<stop offset="0" style="stop-color:rgb(0%,0%,0%);stop-opacity:0.27451;"/>
<stop offset="1" style="stop-color:rgb(0%,0%,0%);stop-opacity:0;"/>
</linearGradient>
<radialGradient id="radial0" gradientUnits="userSpaceOnUse" cx="450.908936" cy="189.579361" fx="450.908936" fy="189.579361" r="21.166656" gradientTransform="matrix(0.000000261256,-0.117199,-0.210958,-0.000000152308,78.195972,95.392999)">
<stop offset="0" style="stop-color:rgb(0%,0%,0%);stop-opacity:0.313726;"/>
<stop offset="0.222222" style="stop-color:rgb(0%,0%,0%);stop-opacity:0.27451;"/>
<stop offset="1" style="stop-color:rgb(0%,0%,0%);stop-opacity:0;"/>
</radialGradient>
<radialGradient id="radial1" gradientUnits="userSpaceOnUse" cx="450.908936" cy="189.579361" fx="450.908936" fy="189.579361" r="21.166656" gradientTransform="matrix(-0.000000261256,0.117199,0.210958,0.000000152308,-30.56642,-11.291218)">
<stop offset="0" style="stop-color:rgb(0%,0%,0%);stop-opacity:0.313726;"/>
<stop offset="0.222222" style="stop-color:rgb(0%,0%,0%);stop-opacity:0.27451;"/>
<stop offset="1" style="stop-color:rgb(0%,0%,0%);stop-opacity:0;"/>
</radialGradient>
<radialGradient id="radial2" gradientUnits="userSpaceOnUse" cx="450.908936" cy="189.579361" fx="450.908936" fy="189.579361" r="21.166656" gradientTransform="matrix(-0.000000261256,-0.117199,0.210958,-0.000000152308,-30.56642,95.392999)">
<stop offset="0" style="stop-color:rgb(0%,0%,0%);stop-opacity:0.313726;"/>
<stop offset="0.222222" style="stop-color:rgb(0%,0%,0%);stop-opacity:0.27451;"/>
<stop offset="1" style="stop-color:rgb(0%,0%,0%);stop-opacity:0;"/>
</radialGradient>
<radialGradient id="radial3" gradientUnits="userSpaceOnUse" cx="450.908936" cy="189.579361" fx="450.908936" fy="189.579361" r="21.166656" gradientTransform="matrix(0.000000261256,0.117199,-0.210958,0.000000152308,78.195969,-11.291219)">
<stop offset="0" style="stop-color:rgb(0%,0%,0%);stop-opacity:0.313726;"/>
<stop offset="0.222222" style="stop-color:rgb(0%,0%,0%);stop-opacity:0.27451;"/>
<stop offset="1" style="stop-color:rgb(0%,0%,0%);stop-opacity:0;"/>
</radialGradient>
<linearGradient id="linear1" gradientUnits="userSpaceOnUse" x1="169.333328" y1="233.5" x2="169.333328" y2="-168.666656" gradientTransform="matrix(0.093759,0,0,0.093759,0,20.158175)">
<stop offset="0" style="stop-color:rgb(95.686275%,26.274511%,21.176471%);stop-opacity:1;"/>
<stop offset="1" style="stop-color:rgb(93.725491%,32.549021%,31.37255%);stop-opacity:1;"/>
</linearGradient>
<linearGradient id="linear2" gradientUnits="userSpaceOnUse" x1="254" y1="233.5" x2="254" y2="-168.666656" gradientTransform="matrix(0.093759,0,0,0.093759,0,20.158174)">
<stop offset="0" style="stop-color:rgb(74.117649%,74.117649%,74.117649%);stop-opacity:1;"/>
<stop offset="1" style="stop-color:rgb(87.843138%,87.843138%,87.843138%);stop-opacity:1;"/>
</linearGradient>
</defs>
<g id="surface1">
<path style=" stroke:none;fill-rule:nonzero;fill:url(#linear0);" d="M 8.929688 41.902344 L 38.699219 41.902344 L 38.699219 44.109375 L 8.929688 44.109375 Z M 8.929688 41.902344 "/>
<path style=" stroke:none;fill-rule:nonzero;fill:url(#radial0);" d="M 38.699219 42.050781 L 42.667969 42.050781 L 42.667969 40.066406 L 38.699219 40.066406 Z M 38.699219 42.050781 "/>
<path style=" stroke:none;fill-rule:nonzero;fill:url(#radial1);" d="M 8.929688 42.050781 L 4.960938 42.050781 L 4.960938 44.035156 L 8.929688 44.035156 Z M 8.929688 42.050781 "/>
<path style=" stroke:none;fill-rule:nonzero;fill:url(#radial2);" d="M 8.929688 42.050781 L 4.960938 42.050781 L 4.960938 40.066406 L 8.929688 40.066406 Z M 8.929688 42.050781 "/>
<path style=" stroke:none;fill-rule:nonzero;fill:url(#radial3);" d="M 38.699219 42.050781 L 42.667969 42.050781 L 42.667969 44.035156 L 38.699219 44.035156 Z M 38.699219 42.050781 "/>
<path style=" stroke:none;fill-rule:nonzero;fill:url(#linear1);" d="M 6.945312 4.34375 L 40.683594 4.34375 C 41.78125 4.34375 42.667969 5.234375 42.667969 6.328125 L 42.667969 40.066406 C 42.667969 41.164062 41.78125 42.050781 40.683594 42.050781 L 6.945312 42.050781 C 5.851562 42.050781 4.960938 41.164062 4.960938 40.066406 L 4.960938 6.328125 C 4.960938 5.234375 5.851562 4.34375 6.945312 4.34375 Z M 6.945312 4.34375 "/>
<path style=" stroke:none;fill-rule:nonzero;fill:rgb(90.196079%,90.196079%,90.196079%);fill-opacity:0.392157;" d="M 6.945312 4.34375 C 5.847656 4.34375 4.960938 5.230469 4.960938 6.328125 L 4.960938 6.578125 C 4.960938 5.476562 5.847656 4.589844 6.945312 4.59375 L 40.683594 4.59375 C 41.78125 4.589844 42.667969 5.476562 42.667969 6.578125 L 42.667969 6.328125 C 42.667969 5.230469 41.78125 4.34375 40.683594 4.34375 Z M 6.945312 4.34375 "/>
<path style=" stroke:none;fill-rule:nonzero;fill:rgb(0%,0%,0%);fill-opacity:0.196078;" d="M 6.945312 42.050781 C 5.847656 42.050781 4.960938 41.164062 4.960938 40.066406 L 4.960938 39.816406 C 4.960938 40.917969 5.847656 41.804688 6.945312 41.804688 L 40.683594 41.804688 C 41.78125 41.804688 42.667969 40.917969 42.667969 39.816406 L 42.667969 40.066406 C 42.667969 41.164062 41.78125 42.050781 40.683594 42.050781 Z M 6.945312 42.050781 "/>
<path style="fill:none;stroke-width:3;stroke-linecap:round;stroke-linejoin:miter;stroke:rgb(12.941177%,12.941177%,12.941177%);stroke-opacity:1;stroke-miterlimit:4;" d="M 74.076259 -168.671091 L 433.916896 -168.671091 C 445.624112 -168.671091 455.081542 -159.171998 455.081542 -147.506445 L 455.081542 212.334192 C 455.081542 224.041407 445.624112 233.498837 433.916896 233.498837 L 74.076259 233.498837 C 62.410707 233.498837 52.911614 224.041407 52.911614 212.334192 L 52.911614 -147.506445 C 52.911614 -159.171998 62.410707 -168.671091 74.076259 -168.671091 Z M 74.076259 -168.671091 " transform="matrix(0.093759,0,0,0.093759,0,20.158175)"/>
<path style=" stroke:none;fill-rule:nonzero;fill:url(#linear2);" d="M 23.816406 10.300781 C 23.519531 10.300781 23.242188 10.429688 23.054688 10.65625 L 13.128906 22.5625 C 12.824219 22.929688 12.824219 23.464844 13.128906 23.832031 L 23.054688 35.738281 C 23.242188 35.964844 23.519531 36.09375 23.816406 36.09375 L 29.769531 36.09375 C 30.609375 36.09375 31.066406 35.117188 30.53125 34.472656 L 22.171875 24.441406 L 17.613281 27.414062 L 21.148438 23.214844 L 21.136719 23.199219 L 30.53125 11.925781 C 31.066406 11.277344 30.609375 10.300781 29.769531 10.300781 Z M 23.816406 10.300781 "/>
<path style=" stroke:none;fill-rule:nonzero;fill:rgb(100%,100%,100%);fill-opacity:1;" d="M 23.816406 10.300781 C 23.519531 10.300781 23.242188 10.429688 23.054688 10.65625 L 13.128906 22.5625 C 12.9375 22.796875 12.863281 23.097656 12.917969 23.382812 C 12.949219 23.222656 13.019531 23.066406 13.128906 22.933594 L 23.054688 11.027344 C 23.242188 10.800781 23.519531 10.671875 23.816406 10.671875 L 29.769531 10.671875 C 30.285156 10.671875 30.660156 11.042969 30.742188 11.480469 C 30.855469 10.90625 30.429688 10.300781 29.769531 10.300781 Z M 22.171875 24.441406 L 18.304688 26.964844 L 17.613281 27.785156 L 22.171875 24.8125 L 30.53125 34.839844 C 30.644531 34.976562 30.710938 35.128906 30.742188 35.285156 C 30.792969 35.011719 30.734375 34.71875 30.53125 34.472656 Z M 22.171875 24.441406 "/>
<path style=" stroke:none;fill-rule:nonzero;fill:rgb(0%,0%,0%);fill-opacity:0.235294;" d="M 30.726562 11.671875 C 30.6875 11.800781 30.625 11.925781 30.53125 12.039062 L 21.136719 23.3125 L 21.148438 23.332031 L 17.613281 27.53125 L 18.585938 26.894531 L 21.148438 23.851562 L 21.136719 23.835938 L 30.53125 12.5625 C 30.753906 12.292969 30.804688 11.960938 30.726562 11.671875 Z M 12.9375 23.574219 C 12.851562 23.878906 12.917969 24.214844 13.128906 24.46875 L 23.054688 36.375 C 23.242188 36.601562 23.519531 36.734375 23.816406 36.734375 L 29.769531 36.734375 C 30.457031 36.734375 30.890625 36.070312 30.726562 35.476562 C 30.613281 35.878906 30.257812 36.210938 29.769531 36.210938 L 23.816406 36.210938 C 23.519531 36.210938 23.242188 36.082031 23.054688 35.855469 L 13.128906 23.949219 C 13.039062 23.835938 12.972656 23.707031 12.9375 23.574219 Z M 12.9375 23.574219 "/>
<path style="fill:none;stroke-width:11.338583;stroke-linecap:round;stroke-linejoin:round;stroke:rgb(12.941177%,12.941177%,12.941177%);stroke-opacity:1;stroke-miterlimit:4;" d="M 960.065849 415.235959 C 948.098487 415.235959 936.918452 420.432314 929.360118 429.5653 L 529.240826 909.519492 C 516.958534 924.321229 516.958534 945.893973 529.240826 960.69571 L 929.360118 1440.649902 C 936.918452 1449.782889 948.098487 1454.979243 960.065849 1454.979243 L 1200.042945 1454.979243 C 1233.897982 1454.979243 1252.32142 1415.612922 1230.748676 1389.631149 L 893.772964 985.260295 L 710.010975 1105.091378 L 852.517059 935.816195 L 852.044663 935.186334 L 1230.748676 480.741518 C 1252.32142 454.602281 1233.897982 415.235959 1200.042945 415.235959 Z M 960.065849 415.235959 " transform="matrix(0.0248071,0,0,0.0248071,0,0)"/>
</g>
</svg>
